contributed-vectors/circles_life.svg

<svg xmlns="http://www.w3.org/2000/svg" xmlns:xlink="http://www.w3.org/1999/xlink" viewBox="0 0 192 192"><defs><linearGradient id="b" x1="60.63" x2="168.44" y1="158.99" y2="158.99" gradientTransform="matrix(1 0 0 -1 0 194)" gradientUnits="userSpaceOnUse"><stop offset="0" stop-color="#bd9aff"/><stop offset="1" stop-color="#8c72bd"/></linearGradient><linearGradient id="a" x1="35.23" x2="178.32" y1="181.54" y2="181.54" gradientTransform="matrix(1 0 0 -1 0 194)" gradientUnits="userSpaceOnUse"><stop offset="0" stop-color="#8c72bd"/><stop offset="1" stop-color="#96dfd3"/></linearGradient><linearGradient id="c" x1="15.1" x2="106.5" y1="29.7" y2="29.7" gradientTransform="matrix(1 0 0 -1 0 194)" gradientUnits="userSpaceOnUse"><stop offset="0" stop-color="#8c72bd"/><stop offset="1" stop-color="#bd9aff"/></linearGradient><linearGradient xlink:href="#a" id="d" x1="25.39" x2="178.85" y1="100.97" y2="100.97"/><linearGradient id="e" x1="-19.99" x2="80.5" y1="112.17" y2="112.17" gradientTransform="matrix(1 0 0 -1 0 194)" gradientUnits="userSpaceOnUse"><stop offset="0" stop-color="#8c72bd"/><stop offset=".37" stop-color="#728dbe"/><stop offset=".8" stop-color="#96dfd3"/></linearGradient><linearGradient xlink:href="#a" id="f" x1="32.86" x2="314.23" y1="162.92" y2="162.92"/><linearGradient id="g" x1="155.41" x2="258.09" y1="119.21" y2="119.21" gradientTransform="matrix(1 0 0 -1 0 194)" gradientUnits="userSpaceOnUse"><stop offset="0" stop-color="#71a372"/><stop offset=".34" stop-color="#96dfd3"/></linearGradient><linearGradient xlink:href="#a" id="h" x1="-128.55" x2="277.79" y1="53.96" y2="53.96"/><linearGradient id="i" x1="18.59" x2="125.36" y1="163.28" y2="163.28" gradientTransform="matrix(1 0 0 -1 0 194)" gradientUnits="userSpaceOnUse"><stop offset="0" stop-color="#8c72bd"/><stop offset=".87" stop-color="#96dfd3"/></linearGradient><linearGradient id="j" x1="233.16" x2="95.51" y1="217.47" y2="-54.57" gradientTransform="matrix(1 0 0 -1 0 194)" gradientUnits="userSpaceOnUse"><stop offset="0" stop-color="#71a372"/><stop offset=".72" stop-color="#96dfd3"/></linearGradient><linearGradient id="k" x1="72.45" x2="-17.8" y1="234.24" y2="-15.66" gradientTransform="matrix(1 0 0 -1 0 194)" gradientUnits="userSpaceOnUse"><stop offset="0" stop-color="#71a372"/><stop offset=".78" stop-color="#96dfd3"/></linearGradient></defs><path fill="url(#b)" d="M153 50.66c6.51 2.13 12.13 4.42 16.81 7.86-7.13-28.38-30.29-45.78-59.76-47h-1.87c16.66 6.33 33.06 20.86 44.82 39.14Z"/><path fill="url(#a)" d="M83.72 17c9-3.49 17.49-5.42 24.46-5.47a52.85 52.85 0 0 0-15.25-3.47 48.86 48.86 0 0 0-29.83 7.49A35.46 35.46 0 0 1 83.72 17Z"/><path fill="url(#c)" d="M85 178.67c-24.16-6.46-44.82-17.86-58.67-34.11 8.17 21.14 26.34 36.3 55.75 39.06a84.36 84.36 0 0 0 36-4 71.77 71.77 0 0 1-33.08-.95Z"/><path fill="url(#d)" d="M93.92 22.9a38.4 38.4 0 0 0-10.2-5.9 138.81 138.81 0 0 0-46 29.85C29.89 63.47 26.14 81.34 24 91.39a114.44 114.44 0 0 0-2.66 25.47c17 27.6 59 50.88 83.91 52.18 22.39 1.2 46.23-18.44 58.26-49.42a142.89 142.89 0 0 0 6.2-20.62c-1-16.92-7.39-33.8-16.71-48.38-15.82-5.17-36.39-9.62-59.08-27.72ZM96 145.29c-26.86 0-49.24-21.77-49.24-48.95S69.14 46.65 96 46.65s49.3 22.45 49.3 49.69-22.44 48.95-49.3 48.95Z"/><path fill="url(#e)" d="M23.9 91.38c2.19-10 5.94-28 13.8-44.58C25.2 59.15 15.89 73.83 14 89.35c-1.14 9.22 1.77 18.6 7.24 27.5a114.61 114.61 0 0 1 2.66-25.47Z"/><path fill="url(#f)" d="M83.71 17a38 38 0 0 1 10.21 5.9C116.61 41 137.18 45.45 153 50.66c-11.66-18.23-28.06-32.81-44.82-39.17-6.97.06-15.46 1.98-24.47 5.51Z"/><path fill="url(#g)" d="M169.61 99c3.23-15.11 3.07-28.75.1-40.52-4.63-3.48-10.31-5.74-16.81-7.88 9.37 14.59 15.67 31.46 16.71 48.4Z"/><path fill="url(#h)" d="M165.39 129a72.49 72.49 0 0 0 4.27-30 129.94 129.94 0 0 1-6.25 20.62c-12.07 31.05-35.92 50.63-58.25 49.43-24.88-1.3-66.89-24.58-83.91-52.19a80.92 80.92 0 0 0 5.1 27.71c13.85 16.24 34.51 27.59 58.65 34.1a71.77 71.77 0 0 0 33.05.94c20.69-7.34 37.29-23.85 47.34-50.61Z"/><path fill="url(#i)" d="M37.7 46.8A140.15 140.15 0 0 1 83.66 17 36 36 0 0 0 63 15.5c-11.35 7.29-19.47 18.96-25.3 31.3Z"/><path fill="url(#j)" d="M183.87 92.32c-1-18.39-6-27.86-14.16-33.85 3 11.77 3.13 25.36-.1 40.52a72.51 72.51 0 0 1-4.27 30.01c-10.05 26.71-26.65 43.22-47.32 50.57 37.33-7.57 68.14-43.66 65.85-87.25Z"/><path fill="url(#k)" d="M14 89.36c1.93-15.58 11.25-30.21 23.74-42.55 5.83-12.35 14-24 25.35-31.25C33.48 22 5.94 62.12 8.13 98.78a75.72 75.72 0 0 0 18.27 45.78 79.93 79.93 0 0 1-5.1-27.7c-5.57-8.86-8.43-18.29-7.3-27.5Z"/></svg>

<svg xmlns="http://www.w3.org/2000/svg" xmlns:xlink="http://www.w3.org/1999/xlink" viewBox="0 0 192 192"><title>Circles.Life</title><defs><linearGradient id="a" x1="60.63" y1="158.99" x2="168.44" y2="158.99" gradientTransform="matrix(1, 0, 0, -1, 0, 194)" gradientUnits="userSpaceOnUse"><stop offset="0" stop-color="#bd9aff"/><stop offset="1" stop-color="#8c72bd"/></linearGradient><linearGradient id="b" x1="35.23" y1="181.54" x2="178.32" y2="181.54" gradientTransform="matrix(1, 0, 0, -1, 0, 194)" gradientUnits="userSpaceOnUse"><stop offset="0" stop-color="#8c72bd"/><stop offset="1" stop-color="#96dfd3"/></linearGradient><linearGradient id="c" x1="15.1" y1="29.7" x2="106.5" y2="29.7" gradientTransform="matrix(1, 0, 0, -1, 0, 194)" gradientUnits="userSpaceOnUse"><stop offset="0" stop-color="#8c72bd"/><stop offset="1" stop-color="#bd9aff"/></linearGradient><linearGradient id="d" x1="25.39" y1="100.97" x2="178.85" y2="100.97" xlink:href="#b"/><linearGradient id="e" x1="-19.99" y1="112.17" x2="80.5" y2="112.17" gradientTransform="matrix(1, 0, 0, -1, 0, 194)" gradientUnits="userSpaceOnUse"><stop offset="0" stop-color="#8c72bd"/><stop offset="0.37" stop-color="#728dbe"/><stop offset="0.8" stop-color="#96dfd3"/></linearGradient><linearGradient id="f" x1="32.86" y1="162.92" x2="314.23" y2="162.92" xlink:href="#b"/><linearGradient id="g" x1="155.41" y1="119.21" x2="258.09" y2="119.21" gradientTransform="matrix(1, 0, 0, -1, 0, 194)" gradientUnits="userSpaceOnUse"><stop offset="0" stop-color="#71a372"/><stop offset="0.34" stop-color="#96dfd3"/></linearGradient><linearGradient id="h" x1="-128.55" y1="53.96" x2="277.79" y2="53.96" xlink:href="#b"/><linearGradient id="i" x1="18.59" y1="163.28" x2="125.36" y2="163.28" gradientTransform="matrix(1, 0, 0, -1, 0, 194)" gradientUnits="userSpaceOnUse"><stop offset="0" stop-color="#8c72bd"/><stop offset="0.87" stop-color="#96dfd3"/></linearGradient><linearGradient id="j" x1="233.16" y1="217.47" x2="95.51" y2="-54.57" gradientTransform="matrix(1, 0, 0, -1, 0, 194)" gradientUnits="userSpaceOnUse"><stop offset="0" stop-color="#71a372"/><stop offset="0.72" stop-color="#96dfd3"/></linearGradient><linearGradient id="k" x1="72.45" y1="234.24" x2="-17.8" y2="-15.66" gradientTransform="matrix(1, 0, 0, -1, 0, 194)" gradientUnits="userSpaceOnUse"><stop offset="0" stop-color="#71a372"/><stop offset="0.78" stop-color="#96dfd3"/></linearGradient></defs><path d="M153,50.66c6.51,2.13,12.13,4.42,16.81,7.86-7.13-28.38-30.29-45.78-59.76-47h-1.87C124.84,17.85,141.24,32.38,153,50.66Z" fill="url(#a)"/><path d="M83.72,17c9-3.49,17.49-5.42,24.46-5.47A52.85,52.85,0,0,0,92.93,8.06,48.86,48.86,0,0,0,63.1,15.55,35.46,35.46,0,0,1,83.72,17Z" fill="url(#b)"/><path d="M85,178.67c-24.16-6.46-44.82-17.86-58.67-34.11,8.17,21.14,26.34,36.3,55.75,39.06a84.36,84.36,0,0,0,36-4A71.77,71.77,0,0,1,85,178.67Z" fill="url(#c)"/><path d="M93.92,22.9A38.4,38.4,0,0,0,83.72,17a138.81,138.81,0,0,0-46,29.85C29.89,63.47,26.14,81.34,24,91.39a114.44,114.44,0,0,0-2.66,25.47c17,27.6,59,50.88,83.91,52.18,22.39,1.2,46.23-18.44,58.26-49.42A142.89,142.89,0,0,0,169.71,99c-1-16.92-7.39-33.8-16.71-48.38C137.18,45.45,116.61,41,93.92,22.9ZM96,145.29c-26.86,0-49.24-21.77-49.24-48.95S69.14,46.65,96,46.65s49.3,22.45,49.3,49.69S122.86,145.29,96,145.29Z" fill="url(#d)"/><path d="M23.9,91.38c2.19-10,5.94-28,13.8-44.58C25.2,59.15,15.89,73.83,14,89.35c-1.14,9.22,1.77,18.6,7.24,27.5A114.61,114.61,0,0,1,23.9,91.38Z" fill="url(#e)"/><path d="M83.71,17A38,38,0,0,1,93.92,22.9C116.61,41,137.18,45.45,153,50.66c-11.66-18.23-28.06-32.81-44.82-39.17C101.21,11.55,92.72,13.47,83.71,17Z" fill="url(#f)"/><path d="M169.61,99c3.23-15.11,3.07-28.75.1-40.52C165.08,55,159.4,52.74,152.9,50.6,162.27,65.19,168.57,82.06,169.61,99Z" fill="url(#g)"/><path d="M165.39,129a72.49,72.49,0,0,0,4.27-30,129.94,129.94,0,0,1-6.25,20.62c-12.07,31.05-35.92,50.63-58.25,49.43-24.88-1.3-66.89-24.58-83.91-52.19a80.92,80.92,0,0,0,5.1,27.71C40.2,160.81,60.86,172.16,85,178.67a71.77,71.77,0,0,0,33.05.94C138.74,172.27,155.34,155.76,165.39,129Z" fill="url(#h)"/><path d="M37.7,46.8A140.15,140.15,0,0,1,83.66,17,36,36,0,0,0,63,15.5C51.65,22.79,43.53,34.46,37.7,46.8Z" fill="url(#i)"/><path d="M183.87,92.32c-1-18.39-6-27.86-14.16-33.85,3,11.77,3.13,25.36-.1,40.52A72.51,72.51,0,0,1,165.34,129c-10.05,26.71-26.65,43.22-47.32,50.57C155.35,172,186.16,135.91,183.87,92.32Z" fill="url(#j)"/><path d="M14,89.36c1.93-15.58,11.25-30.21,23.74-42.55,5.83-12.35,14-24,25.35-31.25C33.48,22,5.94,62.12,8.13,98.78A75.72,75.72,0,0,0,26.4,144.56a79.93,79.93,0,0,1-5.1-27.7C15.73,108,12.87,98.57,14,89.36Z" fill="url(#k)"/></svg>
